icons/desktop/16/svg/email-mask-16.svg

<svg width="16" height="16" viewBox="0 0 16 16" fill="none" xmlns="http://www.w3.org/2000/svg">
<path fill-rule="evenodd" clip-rule="evenodd" d="M12.2695 9.18359C12.7949 8.13051 13.2015 7.88137 13.6621 7.97656C14.067 8.05998 14.3123 8.7877 14.4463 9.10449C14.7067 9.72017 14.9263 10.3374 15.0527 10.9902C15.14 11.4409 15.3735 11.7724 15.8311 11.7725L15.834 11.7744C15.9499 11.7759 16.0299 11.8963 15.9893 12.0049C15.8914 12.2667 15.5903 12.4336 15.3389 12.5303C15.4533 12.56 15.7902 12.4931 15.8037 12.6611C15.8138 12.7993 15.4642 12.9372 15.3691 12.9834C14.4825 13.4103 13.6664 14.1764 12.6172 14.041C12.1611 13.9815 11.8284 13.6603 11.4551 13.4609C11.2789 13.3672 11.0648 13.3672 10.8887 13.4609C10.5154 13.6603 10.1827 13.9815 9.72656 14.041C8.67736 14.1763 7.86126 13.4103 6.97461 12.9834C6.87942 12.9387 6.52844 12.7992 6.54004 12.6611C6.55509 12.4916 6.89185 12.5599 7.00488 12.5303C6.75348 12.4336 6.45234 12.2667 6.35449 12.0049C6.31391 11.8963 6.39237 11.7744 6.50977 11.7744C6.96879 11.7729 7.20075 11.4428 7.28809 10.9922C7.41454 10.3377 7.63409 9.72126 7.89453 9.10547C8.02852 8.79 8.27406 8.06203 8.67871 7.97852C9.13933 7.88333 9.54746 8.13021 10.0713 9.18457C10.5033 10.0517 10.7959 10.6592 10.7959 10.6592V10.665L11.0918 10.6621L11.0996 10.6602H11.249L11.5449 10.6631V10.6572C11.5449 10.6572 11.8375 10.0521 12.2695 9.18359ZM10.5576 12.5645C10.3438 11.8788 9.46609 11.6194 8.80371 11.7295C8.69227 11.7474 8.38644 11.856 8.39941 11.9971V11.999C8.6976 12.7366 9.94941 13.1189 10.5576 12.5645ZM13.5352 11.7295C12.8733 11.6196 11.9958 11.878 11.7812 12.5625C12.3894 13.1188 13.6409 12.7348 13.9404 11.9971C13.9533 11.856 13.6464 11.7473 13.5352 11.7295Z" fill="black"/>
<path fill-rule="evenodd" clip-rule="evenodd" d="M6.39746 1.33691C6.54963 1.33836 6.70222 1.33769 6.85449 1.34082C6.96461 1.34309 7.0746 1.34842 7.18457 1.35156C7.36335 1.35666 7.54288 1.36075 7.72168 1.36816C7.81716 1.37213 7.91249 1.37819 8.00781 1.38281C8.18577 1.39143 8.36414 1.39922 8.54199 1.41016C8.73417 1.42198 8.92582 1.43766 9.11719 1.45215C9.20523 1.45881 9.29386 1.46445 9.38184 1.47168H9.38672C9.3954 1.4724 9.4044 1.47291 9.41309 1.47363C10.8875 1.59643 11.9998 2.81271 12 4.30176V7.27637C11.4152 8.05235 11.1709 8.42188 11.1709 8.42188C11.165 8.4117 10.9328 8.01008 10.332 7.25781V4.30176C10.332 4.29719 10.3311 4.29264 10.3311 4.28809L8.21191 6.4082C7.59728 7.02137 6.78109 7.33203 5.96387 7.33203C5.22796 7.33197 4.49232 7.08091 3.90039 6.57031C3.45383 6.18601 2.53572 5.30435 1.66797 4.46191V7.70215L1.66504 7.7002C1.66766 8.30335 2.14494 8.81505 2.75391 8.86426C3.65472 8.93823 4.55701 8.97525 5.45801 8.98438H6.50684C6.29893 9.50721 6.08411 10.111 5.96191 10.6602C4.83025 10.6592 3.69784 10.6156 2.61816 10.5264C1.14907 10.4048 1.05287e-05 9.16181 0 7.69531V4.30176C0.000199147 2.81271 1.11253 1.59643 2.58691 1.47363C2.59517 1.47295 2.60404 1.47236 2.6123 1.47168H2.61816C2.70572 1.46448 2.79422 1.45878 2.88184 1.45215C3.07321 1.43765 3.26485 1.42198 3.45703 1.41016C3.63488 1.39922 3.81325 1.39144 3.99121 1.38281C4.08653 1.37819 4.18187 1.37213 4.27734 1.36816C4.45603 1.36075 4.63481 1.35666 4.81348 1.35156C4.92366 1.34842 5.03419 1.34309 5.14453 1.34082C5.29691 1.33769 5.44929 1.33837 5.60156 1.33691C5.7239 1.33574 5.84629 1.3331 5.96875 1.33301H6.03125C6.15328 1.3331 6.27556 1.33575 6.39746 1.33691ZM6 2.99902C4.97726 2.99906 3.9373 3.03989 2.90723 3.12109C2.85523 3.12521 2.80288 3.12849 2.75098 3.13281C2.73226 3.1344 2.71377 3.13719 2.69531 3.13965C3.59182 4.01166 4.55539 4.93634 4.98633 5.30762C5.58099 5.81695 6.47792 5.78354 7.03125 5.22754L9.13379 3.12402C9.11958 3.12299 9.10503 3.12222 9.09082 3.12109C8.06127 3.03998 7.0222 2.99906 6 2.99902Z" fill="black"/>
</svg>

<!-- This Source Code Form is subject to the terms of the Mozilla Public
   - License, v. 2.0. If a copy of the MPL was not distributed with this
   - file, You can obtain one at http://mozilla.org/MPL/2.0/. -->
<svg xmlns="http://www.w3.org/2000/svg" width="16" height="16" fill="context-fill" fill-opacity="context-fill-opacity" viewBox="0 0 16 16">
    <path fill-rule="evenodd" d="M12.27 9.184c.525-1.053.931-1.303 1.392-1.207.405.083.65.81.784 1.127.26.616.48 1.233.607 1.886.087.45.32.782.778.783l.003.001a.17.17 0 0 1 .155.23c-.098.263-.399.43-.65.526.114.03.451-.037.465.131.01.138-.34.276-.435.322-.886.427-1.703 1.193-2.752 1.058-.456-.06-.789-.38-1.162-.58a.6.6 0 0 0-.566 0c-.374.2-.706.52-1.162.58-1.05.135-1.866-.63-2.752-1.058-.096-.044-.447-.184-.435-.322.015-.17.352-.101.465-.13-.252-.097-.553-.264-.65-.526-.041-.109.037-.23.155-.23.459-.002.69-.332.778-.783.127-.654.346-1.27.607-1.887.134-.315.38-1.043.784-1.126.46-.096.868.151 1.392 1.206.432.867.725 1.474.725 1.474v.006l.296-.003.008-.002h.149l.296.003v-.006s.293-.605.725-1.473m-1.712 3.38c-.214-.685-1.092-.945-1.754-.835-.112.018-.418.127-.405.268V12c.299.738 1.55 1.12 2.159.566m2.977-.835c-.662-.11-1.54.149-1.754.834.608.556 1.86.172 2.16-.566.012-.141-.295-.25-.406-.268" clip-rule="evenodd" />
    <path fill-rule="evenodd" d="M6.397 1.337q.23 0 .457.004.165.004.33.01.27.008.538.017l.286.015q.267.011.534.027.288.02.575.042.132.01.265.02h.005q.012 0 .026.002A2.813 2.813 0 0 1 12 4.302v2.974c-.585.776-.83 1.146-.83 1.146-.005-.01-.237-.412-.838-1.164v-2.97l-2.12 2.12a3.18 3.18 0 0 1-2.248.924A3.15 3.15 0 0 1 3.9 6.57c-.446-.384-1.364-1.266-2.232-2.108v3.24L1.665 7.7c.003.603.48 1.115 1.089 1.164.9.074 1.803.111 2.704.12h1.049c-.208.523-.423 1.127-.545 1.676a41 41 0 0 1-3.344-.134C1.15 10.405 0 9.162 0 7.696V4.301a2.813 2.813 0 0 1 2.587-2.828l.025-.002h.006q.132-.01.264-.02.287-.022.575-.042l.534-.027.286-.015q.269-.01.536-.016.165-.007.332-.011.228-.003.457-.004.183-.003.367-.004h.062q.184.001.366.004M6 2.999c-1.023 0-2.063.04-3.093.122l-.156.012q-.028.002-.056.007c.897.872 1.86 1.796 2.291 2.168a1.51 1.51 0 0 0 2.045-.08l2.103-2.104-.043-.003A40 40 0 0 0 6 3" clip-rule="evenodd" />
</svg>
